X:116
T:Mainsail Haul or Paddy, Lay Back
M:12/8
L:1/8
K:Bb
FF|\
B2B B2B c2B G2B|F3 D3-D2z F3 |B3  B2B d2d c2B|c3-c3- c2z F3 |
B2B B2B c2B G2B|F3 D3-D2z F3 |d3  d2d e2c B2A|B3-B3- B3z B2A|
G2F G2A B2A B2c|B3 A3-A2z c2c|ccc c2c d2c B2G|F3-F3- F2z F2B|
d2d d2d c2B G2B|G3 F3-F2z G3 |c2c c2d e2e d2c|B3-B3- B2z BBB|
G3- G3- GzB B2B|F3-F3-F3  z2z|B2B B2B d2d c2B|c3 f2f f3- f3 |
B3  B3  c2B G2B|F3 D3-D3- D3 |d3  B3  e2c B2A|B3-B3- B3  z3||
